Adwaita++-Dark/actions/16/format-indent-less.svg

<svg fill="none" height="16" viewBox="0 0 16 16" width="16" xmlns="http://www.w3.org/2000/svg">
  <g fill="#e6ddff">
    <path d="m2 3h5v2h-5z"/>
    <path d="m2 7h6v2h-6z"/>
    <path d="m7 11h7v2h-7z"/>
    <path d="m14 3v1c0 .25689-.1298.52846-.3125.71875l-1.2812 1.28119 1.2812 1.28119c.1827.19029.3125.46186.3125.71875v1h-1c-.3094 0-.5523-.0903-.75-.28125l-2.65619-2.71875 2.65619-2.71881c.1977-.19095.4406-.28125.75-.28125h1z"/>
  </g>
</svg>

<svg xmlns="http://www.w3.org/2000/svg" fill="none" width="16" height="16" viewBox="0 0 16 16">
 <path fill="#E6DDFF" d="M2 3H7V5H2V3Z"/>
 <path fill="#E6DDFF" d="M2 7H8V9H2V7Z"/>
 <path fill="#E6DDFF" d="M7 11H14V13H7V11Z"/>
 <path fill="#E6DDFF" d="M14 3V4C14 4.25689 13.8702 4.52846 13.6875 4.71875L12.4063 5.99994L13.6875 7.28113C13.8702 7.47142 14 7.74299 14 7.99988V8.99988H13C12.6906 8.99988 12.4477 8.90958 12.25 8.71863L9.59381 5.99988L12.25 3.28107C12.4477 3.09012 12.6906 2.99982 13 2.99982H14V3Z"/>
</svg>
